nalufx-ui/ui/assets/carret-top.svg

<?xml version="1.0" encoding="UTF-8"?>
<svg width="28px" height="16px" viewBox="0 0 28 16" version="1.1" xmlns="http://www.w3.org/2000/svg" xmlns:xlink="http://www.w3.org/1999/xlink">
    <title>carret-top</title>
    <g id="carret-top" stroke="none" stroke-width="1" fill="none" fill-rule="evenodd">
        <g transform="translate(-0, -0)" fill="#FFFFFF" id="caret">
            <path d="M26.9973641,0.639035922 C27.8494411,1.49108382 27.8494411,2.87255982 26.9973641,3.72452044 L15.3609423,15.3609423 C14.5088653,16.2130192 13.127622,16.2130192 12.275545,15.3609423 L0.639035922,3.72452044 C-0.213011974,2.87255982 -0.213011974,1.49108382 0.639035922,0.639035922 C1.49108382,-0.213011974 2.87255982,-0.213011974 3.72460771,0.639035922 L13.8182436,10.7325555 L23.9119668,0.639035922 C24.7640438,-0.213011974 26.1452871,-0.213011974 26.9973641,0.639035922 Z" id="Path" transform="translate(13.8182, 8) scale(1, -1) translate(-13.8182, -8)"></path>
        </g>
    </g>
</svg>

<svg height="16" viewBox="0 0 28 16" width="28" xmlns="http://www.w3.org/2000/svg"><path d="m26.9973641.63903592c.852077.8520479.852077 2.2335239 0 3.08548452l-11.6364218 11.63642186c-.852077.8520769-2.2333203.8520769-3.0853973 0l-11.63650908-11.63642186c-.85204789-.85196062-.85204789-2.23343662 0-3.08548452.8520479-.85204789 2.2335239-.85204789 3.08557179 0l10.09363589 10.09351958 10.0937232-10.09351958c.852077-.85204789 2.2333203-.85204789 3.0853973 0z" fill="#fff" fill-rule="evenodd" transform="matrix(1 0 0 -1 0 16)"/></svg>
